!!!!SEGMENT: pl-kk--kk-i-7--079_paszkiewicz-andrzej--tibi-laus-tibi-gloria.krn
!!!cenid: 16xx:918
!!!COM: Paszkiewicz, Andrzej
!!!COM-rism: pe30105867
!!!CDT: ~1635-1685
!!!CNT: Polish
!!!OTL: Tibi laus tibi gloria
!!!PDT: 1669
!!!AGN: Sacred
!!!SMS-siglum: PL-Kk
!!!SMS-shelfmark: Kk.I.7
!!!NIFC-rismID: 300258156
!!!URL-scan: http://repozytorium.nifc.pl/skany/pl-kk-nut--i-7
!!!ONB-nifc: UWAGA: C (skan 0068-0069, s.128-130), A (brak), T(0231-0232, s.125-126), B(0318, s.122-123). Następny utwór: Ave filia Dei patris
!!!SMS-variant:
!!!SMS-altvar:
**kern	**text	**kern	**text	**kern	**kern	**text
*part4	*part4	*part3	*part3	*part2	*part1	*part1
*staff4	*staff4	*staff3	*staff3	*staff2	*staff1	*staff1
*group1	*	*group1	*	*group1	*group1	*
*I"BASVS.	*	*I"TENOR.	*	*I"ALTVS.	*I"CANTVS.	*
*I'B	*	*I'T	*	*I'A	*I'S	*
*clefF4	*	*clefC4	*	*clefC4	*clefC3	*
*k[]	*	*k[]	*	*k[]	*k[]	*
*M2/1	*	*M2/1	*	*M2/1	*M2/1	*
*met(C|)	*	*met(C|)	*	*met(C|)	*met(C|)	*
=1-	=1-	=1-	=1-	=1-	=1-	=1-
*all\right	*	*	*	*	*all\right	*
!LO:TX:a:t=Cantilena de Passione D(omi)ni gratiar(um) actoria\nauth(ore) R.P. Andrea Paszkiewicz Ord(inis) Carm(elitarum) Discalc(eatorum)\nCrac(oviensis) S. Theologiae Lectore et Concionat(ore) digniſsimo.\nA.D. 1669. facta A.D. <..> Scripta 1670&colon; A.M D G.	!	!LO:TX:a:t=Cantilena de Paſsione D(omi)ni auth(ore) R.P. Andrea Paſzkiewicz Ord(inis) Carm(elitarum) Discalcea(torum) S. Th. Lectore Crac(oviensis) 1669.	!	!	!LO:TX:a:t=Cantilena de\nPaſsione D(omi)ni auth(ore) A.P.O.C.D. 1669	!
1E	Ti-	1E	Ti-	0ryy	1e	Ti-
!LO:TX:t=P:problem:kreska pseudotaktowa	!	!	!	!	!	!
*	*	*lig	*	*	*	*
1D	-bi	1F	-bi	.	2A/	-bi
*	*	*	*	*	*2\right	*
!	!	!	!	!	!LO:TX:t=P:problem:kreska pseudotaktowa	!
.	.	.	.	.	2d\	Laus
=2-	=2-	=2-	=2-	=2-	=2-	=2-
1AA	Laus	1E	.	0ryy	1e	Ti-
*	*	*Xlig	*	*	*	*
!	!	!LO:TX:t=P:problem:kreska pseudotaktowa	!	!	!	!
2D/	Ti-	1D	.	.	1f	-bi
!LO:TX:t=P:problem:kreska pseudotaktowa	!	!	!	!	!	!
2D/	-bi	.	.	.	.	.
=3-	=3-	=3-	=3-	=3-	=3-	=3-
*2\right	*	*	*	*	*	*
!	!	!LO:TX:t=P:problem:kreska pseudotaktowa	!	!	!	!
2.E\	glo-	0E	Laus	0ryy	2.e\	glo-
!LO:TX:t=P:problem:kreska pseudotaktowa	!	!	!	!	!	!
4E\	-ri-	.	.	.	4e\	-ri-
!	!	!	!	!	!LO:TX:t=P:problem:kreska pseudotaktowa	!
1AA,<	-a	.	.	.	1c	-a
=4-	=4-	=4-	=4-	=4-	=4-	=4-
1E	Ti-	1Bn	Ti-	0ryy	2r	.
.	.	.	.	.	2.e\	Ti-
*	*	*lig	*	*	*	*
4AA/	-bi	1c	-bi	.	.	.
4BB/	.	.	.	.	4d\	.
4C/	.	.	.	.	4e\	.
!	!	!	!	!	!LO:TX:t=P:problem:kreska pseudotaktowa	!
4D/	.	.	.	.	4f\	.
=5-	=5-	=5-	=5-	=5-	=5-	=5-
!	!	!LO:TX:t=P:problem:kreska pseudotaktowa	!	!	!	!
2.E\	glo-	1B	.	0ryy	2g\	.
.	.	.	.	.	2e\	-bi
!LO:TX:t=P:problem:kreska pseudotaktowa	!	!	!	!	!	!
4D/	.	.	.	.	.	.
*	*	*Xlig	*	*	*	*
*	*	*lig	*	*	*	*
4E\	.	1G	glo-	.	1.g	glo-
4F\	.	.	.	.	.	.
2G\	.	.	.	.	.	.
=6-	=6-	=6-	=6-	=6-	=6-	=6-
2.D/	-ri-	1A	.	0ryy	.	.
!	!	!	!	!	!LO:TX:t=P:problem:kreska pseudotaktowa	!
.	.	.	.	.	2f#X\	-ri-
4D/	-a	.	.	.	.	.
*	*	*Xlig	*	*	*	*
!LO:TX:t=P:problem:kreska pseudotaktowa	!	!	!	!	!	!
1GG	.	1G	-ri-	.	2g\	-a
.	.	.	.	.	2e\	Ti-
=7-	=7-	=7-	=7-	=7-	=7-	=7-
!	!	!LO:TX:t=P:problem:kreska pseudotaktowa	!	!	!LO:TX:t=P:problem:kreska pseudotaktowa	!
1rD	.	1G,<	-a	0ryy	1d	-bi
2rBB	.	1E	Ti-	.	2e\	gra-
1C/	Ti-	.	.	.	2.c/	.
=8-	=8-	=8-	=8-	=8-	=8-	=8-
!	!	!LO:TX:t=P:problem:kreska pseudotaktowa	!	!	!	!
.	.	1E	-bi	0ryy	.	.
.	.	.	.	.	4d\	.
!LO:TX:t=P:problem:kreska pseudotaktowa	!	!	!	!	!	!
2C/	-bi	.	.	.	4e\	.
!	!	!	!	!	!LO:TX:t=P:problem:kreska pseudotaktowa	!
.	.	.	.	.	4fny\	.
2.GG/	gra-	1D	gra-	.	2.g\	.
!	!	!	!	!	!LO:TX:t=P:problem:kreska pseudotaktowa	!
!	!	!	!	!	!LO:SIC:v:t=custos e	!
4GG/	-ti-	.	.	.	4f\	-ti-
!	!	!	!	!	!LO:PB:g=original	!
=9-	=9-	=9-	=9-	=9-	=9-	=9-
2.C/	-a-	1E	-ti-	0ryy	2e\	-a-
.	.	.	.	.	2d\	-rum
!LO:TX:t=P:problem:kreska pseudotaktowa	!	!	!	!	!	!
!LO:SIC:v:t=custos AA	!	!	!	!	!	!
4BB/	.	.	.	.	.	.
!LO:LB:g=original	!	!	!	!	!	!
2AA/	.	1F	-a-	.	2.c/	ac-
!LO:TX:t=P:problem:kreska pseudotaktowa	!	!	!	!	!	!
2BB/	-rum	.	.	.	.	.
.	.	.	.	.	4d\	-ti-
=10-	=10-	=10-	=10-	=10-	=10-	=10-
!	!	!LO:TX:t=P:problem:kreska pseudotaktowa	!	!	!LO:TX:t=P:problem:kreska pseudotaktowa	!
2.C/	ac-	1E	-rum	0ryy	1e	-o
4C/	-ti-	.	.	.	.	.
!LO:TX:t=P:problem:kreska pseudotaktowa	!	!	!	!	!	!
1GG	-o	1D	ac-	.	2r	.
.	.	.	.	.	2g\	O
=11-	=11-	=11-	=11-	=11-	=11-	=11-
2rBB	.	1E	-ti-	0ryy	2g\	a-
!LO:TX:t=P:problem:kreska pseudotaktowa	!	!	!	!	!LO:TX:t=P:problem:kreska pseudotaktowa	!
2C/	o	.	.	.	2g\	-man-
!	!	!LO:TX:t=P:problem:kreska pseudotaktowa	!	!	!	!
2C/	a-	1E	-o	.	2.e\	-tiſ-
2C/	-man-	.	.	.	.	.
.	.	.	.	.	4d\	-si-
=12-	=12-	=12-	=12-	=12-	=12-	=12-
!	!	!	!	!	!LO:TX:t=P:problem:kreska pseudotaktowa	!
2.AA/	-tiſ-	1A	O	0ryy	1c	-me
4GG/	-si-	.	.	.	.	.
!LO:TX:t=P:problem:kreska pseudotaktowa	!	!LO:SIC:v:t=custos A	!	!	!	!
1FF	-me	1A	A-	.	2r	.
*	*	*	*	*	*	*ij
.	.	.	.	.	2a\	O
!	!	!LO:LB:g=original	!	!	!	!
=13-	=13-	=13-	=13-	=13-	=13-	=13-
2rBB	.	1A	-man-	0ryy	2a\	a-
*	*ij	*	*	*	*	*
!	!	!	!	!	!LO:TX:t=P:problem:kreska pseudotaktowa	!
2F\	O	.	.	.	2a\	-man-
2F\	a-	1A	-tiſ-	.	2.f\	-tiſ-
!LO:TX:t=P:problem:kreska pseudotaktowa	!	!	!	!	!	!
2F\	-man-	.	.	.	.	.
.	.	.	.	.	4f\	-si-
=14-	=14-	=14-	=14-	=14-	=14-	=14-
2.E\	-tiſ-	1G	-si-	0ryy	2g\	-me
*	*	*	*	*	*	*Xij
.	.	.	.	.	1e	Be-
4D/	-si-	.	.	.	.	.
!LO:TX:t=P:problem:kreska pseudotaktowa	!	!LO:TX:t=P:problem:kreska pseudotaktowa	!	!	!	!
1C	-me	1E,<	-me	.	.	.
*	*Xij	*	*	*	*	*
!	!	!	!	!	!LO:TX:t=P:problem:kreska pseudotaktowa	!
.	.	.	.	.	2e\	-ni-
=15-	=15-	=15-	=15-	=15-	=15-	=15-
2r	.	1B	Be-	0ryy	2.B/	-gniſ-
1E	be-	.	.	.	.	.
.	.	.	.	.	4B/	-si-
.	.	1B	-ni-	.	2e\	-me
!LO:TX:t=P:problem:kreska pseudotaktowa	!	!	!	!	!LO:TX:t=P:problem:kreska pseudotaktowa:między nutą a kropką	!
2E\	-ni-	.	.	.	2.e\	.
=16-	=16-	=16-	=16-	=16-	=16-	=16-
2.AA/	-gniſ-	1c	-gniſ-	0ryy	.	.
.	.	.	.	.	4d\	be-
.	.	.	.	.	4c/	.
4BB/	.	.	.	.	4d\	.
2.C/	.	1c	-si-	.	4e\	.
.	.	.	.	.	4d\	.
.	.	.	.	.	4e\	.
!	!	!	!	!	!LO:TX:t=P:problem:kreska pseudotaktowa	!
!	!	!	!	!	!LO:SIC:v:t=custos g	!
4D/	-si-	.	.	.	4f\	.
!	!	!	!	!	!LO:LB:g=original	!
=17-	=17-	=17-	=17-	=17-	=17-	=17-
!LO:TX:t=P:problem:kreska pseudotaktowa	!	!LO:TX:t=P:problem:kreska pseudotaktowa	!	!	!	!
1E,<	-me	1B,<	-me,	0ryy	2g\	.
.	.	.	.	.	2g\	-ni-
1D	dul-	1d	Dul-	.	2.f\	-gniſ-
!	!	!	!	!	!LO:TX:t=P:problem:kreska pseudotaktowa	!
.	.	.	.	.	4f\	-si-
=18-	=18-	=18-	=18-	=18-	=18-	=18-
4C/	-cis-	1e	-ciſ-	0ryy	2e\	-me
4D/	.	.	.	.	.	.
4E/	.	.	.	.	2g\	dul-
!LO:TX:t=P:problem:kreska pseudotaktowa	!	!	!	!	!	!
!LO:SIC:v:t=custos G	!	!	!	!	!	!
4F\	.	.	.	.	.	.
!LO:LB:g=original	!	!	!	!	!	!
2G\	-si-	1d	-si-	.	2.g\	-ciſ-
2D/	-me	.	.	.	.	.
.	.	.	.	.	4f\	-si-
=19-	=19-	=19-	=19-	=19-	=19-	=19-
!LO:TX:t=P:problem:kreska pseudotaktowa	!	!LO:TX:t=P:problem:kreska pseudotaktowa	!	!	!LO:TX:t=P:problem:kreska pseudotaktowa	!
1E	.	1B	-me	0ryy	1e	-me
2r	.	1c	Do-	.	2.c/	Do-
1F\	Do-	.	.	.	.	.
.	.	.	.	.	8d\L	.
.	.	.	.	.	8e\J	.
=20-	=20-	=20-	=20-	=20-	=20-	=20-
.	.	1A	-mi-	0ryy	4f\	.
.	.	.	.	.	4c/	.
!LO:TX:t=P:problem:kreska pseudotaktowa	!	!	!	!	!	!
2F\	-mi-	.	.	.	1f	-mi-
!	!	!LO:TX:t=P:problem:kreska pseudotaktowa	!	!	!	!
1C	-ne	1G,<	-ne	.	.	.
.	.	.	.	.	2e\	.
=21-	=21-	=21-	=21-	=21-	=21-	=21-
!	!	!	!	!	!LO:TX:t=P:problem:kreska pseudotaktowa	!
2F\	Je-	1A	Je-	0ryy	1f	-ne
!LO:TX:t=P:problem:kreska pseudotaktowa	!	!	!	!	!	!
2D/	-ſu	.	.	.	.	.
*	*	*lig	*	*	*	*
2E\	.	1G	-ſu	.	2r	.
2.C/	Chri-	.	.	.	2.g\	Je-
=22-	=22-	=22-	=22-	=22-	=22-	=22-
!	!	!LO:TX:t=P:problem:kreska pseudotaktowa	!	!	!	!
.	.	1E	.	0ryy	.	.
4D/	.	.	.	.	4f\	.
4E\	.	.	.	.	4e\	.
!	!	!	!	!	!LO:TX:t=P:problem:kreska pseudotaktowa	!
4C/	.	.	.	.	4g\	.
*	*	*Xlig	*	*	*	*
1D	.	1F	Chri-	.	2f\	.
.	.	.	.	.	2d\	-ſu
=23-	=23-	=23-	=23-	=23-	=23-	=23-
!LO:TX:t=P:problem:kreska pseudotaktowa	!	!	!	!	!	!
1C	-ſte	1E,<	-ſte	0ryy	1e	Chri-
2rBB	.	1E	pro	.	2c,</	-ſte
!	!	!	!	!	!LO:TX:t=P:problem:kreska pseudotaktowa	!
2.AA/	pro	.	.	.	2e\	pro
=24-	=24-	=24-	=24-	=24-	=24-	=24-
.	.	1E	o-	0ryy	4c/	o-
4BB/	.	.	.	.	4d\	.
!LO:TX:t=P:problem:kreska pseudotaktowa	!	!	!	!	!	!
2C/	.	.	.	.	4e\	.
.	.	.	.	.	4f\	.
2.GG/	o-	1D	-mni-	.	2.g\	.
!	!	!	!	!	!LO:TX:t=P:problem:kreska pseudotaktowa	!
!	!	!	!	!	!LO:SIC:v:t=custos e	!
4GG/	-mni-	.	.	.	4f\	-mni-
!	!	!	!	!	!LO:LB:g=original	!
=25-	=25-	=25-	=25-	=25-	=25-	=25-
!	!	!LO:SIC:v:t=custos F	!	!	!	!
2C/	-bus	1E	-bus	0ryy	2e\	-bus
!LO:TX:t=P:problem:kreska pseudotaktowa	!	!	!	!	!	!
2E\	.	.	.	.	2g\	.
!	!	!LO:LB:g=original	!	!	!	!
2.D/	San-	1F	San-	.	2.f\	San-
!	!	!	!	!	!LO:TX:t=P:problem:kreska pseudotaktowa	!
4D/	-ctiſ-	.	.	.	4f\	-ctiſ-
=26-	=26-	=26-	=26-	=26-	=26-	=26-
2C/	-si-	1G	-ctiſ-	0ryy	2e\	-si-
1C	-mis	.	.	.	2.g\	-mis
.	.	1G	-si-	.	.	.
.	.	.	.	.	8f\L	.
.	.	.	.	.	8e\J	.
!LO:TX:t=P:problem:kreska pseudotaktowa	!	!	!	!	!	!
2BB/	gut-	.	.	.	4d\	gut-
!	!	!	!	!	!LO:TX:t=P:problem:kreska pseudotaktowa	!
.	.	.	.	.	4e\	.
=27-	=27-	=27-	=27-	=27-	=27-	=27-
!	!	!LO:TX:t=P:problem:kreska pseudotaktowa	!	!	!	!
2.AA/	-tis	1A,<	-mis	0ryy	2.f\	.
!LO:SIC:v:t=custos C	!	!	!	!	!	!
4BB/	tu-	.	.	.	4f\	-tis
!LO:LB:g=original	!	!	!	!	!LO:TX:t=P:problem:kreska pseudotaktowa	!
2C/	-is	1G	gut-	.	1e	tu-
2.C/	gut-	.	.	.	.	.
=28-	=28-	=28-	=28-	=28-	=28-	=28-
!	!	!LO:TX:t=P:problem:kreska pseudotaktowa	!	!	!	!
.	.	1E	-tis	0ryy	2c,</	-is
4BB/	.	.	.	.	.	.
4AA/	.	.	.	.	2.c/	gut-
!LO:TX:t=P:problem:kreska pseudotaktowa	!	!	!	!	!	!
4GG/	.	.	.	.	.	.
*	*	*lig	*	*	*	*
2.FF/	.	1F	tu-	.	.	.
.	.	.	.	.	4B/	.
.	.	.	.	.	4A/	.
!	!	!	!	!	!LO:TX:t=P:problem:kreska pseudotaktowa	!
4GG/	.	.	.	.	4B/	.
=29-	=29-	=29-	=29-	=29-	=29-	=29-
2AA/	-tis	1E	.	0ryy	2c/	.
!LO:TX:t=P:problem:kreska pseudotaktowa	!	!	!	!	!	!
2EE/	.	.	.	.	1c	-tis
*	*	*Xlig	*	*	*	*
2FF/	tu-	1D	.	.	.	.
2GG/	.	.	.	.	2B/	tu-
=30-	=30-	=30-	=30-	=30-	=30-	=30-
!LO:TX:t=P:problem:kreska pseudotaktowa	!	!LO:TX:t=P:problem:kreska pseudotaktowa	!	!	!LO:TX:t=P:problem:kreska pseudotaktowa	!
1C	-is	1C,<	-is	0ryy	1c	-is
!LO:TX:t=P:problem:kreska pseudotaktowa	!	!	!	!	!	!
!LO:TX:a:t=2	!	!LO:TX:t=P:problem:kreska pseudotaktowa	!	!	!	!
0rC	.	1B	quas	.	1r	.
=31-	=31-	=31-	=31-	=31-	=31-	=31-
.	.	1c	fu-	0ryy	2.e\	quas
.	.	.	.	.	4f\	.
!LO:TX:t=P:problem:kreska pseudotaktowa	!	!	!	!	!	!
1BB	quas	1d	-diſ-	.	2g\	fu-
!	!	!	!	!	!LO:TX:t=P:problem:kreska pseudotaktowa:między nutą a kropką	!
.	.	.	.	.	2.g\	-di-
=32-	=32-	=32-	=32-	=32-	=32-	=32-
!	!	!LO:TX:t=P:problem:kreska pseudotaktowa	!	!	!	!
1C	fu-	1e,<	-ti	0ryy	.	.
.	.	.	.	.	4f\	-ſti
.	.	.	.	.	4e\	.
.	.	.	.	.	4g\	.
*	*	*lig	*	*	*	*
1D	-diſ-	1d	pro	.	1f	pro
=33-	=33-	=33-	=33-	=33-	=33-	=33-
!LO:TX:t=P:problem:kreska pseudotaktowa	!	!LO:TX:t=P:problem:kreska pseudotaktowa	!	!	!	!
1E	-ti	1B	.	0ryy	2.e\	no-
!	!	!	!	!	!LO:TX:t=P:problem:kreska pseudotaktowa	!
!	!	!	!	!	!LO:SIC:v:t=custos c	!
.	.	.	.	.	4d\	.
*	*	*Xlig	*	*	*	*
!	!	!	!	!	!LO:LB:g=original	!
4AA/	pro	1c	no-	.	4c/	.
4BB/	.	.	.	.	4B/	.
4C/	.	.	.	.	1A/	.
4D/	.	.	.	.	.	.
=34-	=34-	=34-	=34-	=34-	=34-	=34-
!	!	!LO:TX:t=P:problem:kreska pseudotaktowa	!	!	!	!
1E	no-	1B,<	-bis	0ryy	.	.
!	!	!	!	!	!LO:TX:t=P:problem:kreska pseudotaktowa	!
.	.	.	.	.	2G#X/	.
!LO:TX:t=P:problem:kreska pseudotaktowa	!	!	!	!	!	!
1AA	-bis	1A	mi-	.	2A,</	-bis
.	.	.	.	.	2e\	mi-
=35-	=35-	=35-	=35-	=35-	=35-	=35-
1E	mi-	1B	-ſer-	0ryy	2.e\	-ſer-
!	!	!	!	!	!LO:TX:t=P:problem:kreska pseudotaktowa	!
.	.	.	.	.	4d\	-ri-
2.A\	-ſer-	1c	-ri-	.	4c/	.
.	.	.	.	.	4d\	-mis
.	.	.	.	.	4e\	.
4A\	ri-	.	.	.	4f\	.
=36-	=36-	=36-	=36-	=36-	=36-	=36-
!LO:TX:t=P:problem:kreska pseudotaktowa	!	!LO:TX:t=P:problem:kreska pseudotaktowa	!	!	!	!
1G	-mis	1d,<	-mis	0ryy	2g\	.
.	.	.	.	.	2.d\	pec-
2G\	pec-	1d	pec-	.	.	.
.	.	.	.	.	4e\	.
!LO:SIC:v:t=custos E	!	!	!	!	!LO:TX:t=P:problem:kreska pseudotaktowa	!
2D/	-ca-	.	.	.	2f\	-ca-
!LO:LB:g=original	!	!	!	!	!	!
=37-	=37-	=37-	=37-	=37-	=37-	=37-
!	!	!LO:SIC:v:t=custos c	!	!	!	!
2.E\	-to-	1B	-ca-	0ryy	2.e\	-to-
4E\	-ri-	.	.	.	4e\	-ri-
!LO:TX:t=P:problem:kreska pseudotaktowa	!	!	!	!	!	!
*	*	*lig	*	*	*	*
!	!	!LO:LB:g=original	!	!	!LO:TX:t=P:problem:kreska pseudotaktowa	!
1A	-bus	1c	-to-	.	1e	-bus
=38-	=38-	=38-	=38-	=38-	=38-	=38-
2r	.	1A	.	0ryy	2re	.
1F	pec-	.	.	.	2f\	pec-
*	*	*Xlig	*	*	*	*
.	.	1G	-ri-	.	4c/	-ca-
.	.	.	.	.	4d\	.
!LO:TX:t=P:problem:kreska pseudotaktowa	!	!	!	!	!	!
2E\	-ca-	.	.	.	4e\	.
!	!	!	!	!	!LO:TX:t=P:problem:kreska pseudotaktowa	!
.	.	.	.	.	4c/	.
=39-	=39-	=39-	=39-	=39-	=39-	=39-
!	!	!LO:TX:t=P:problem:kreska pseudotaktowa	!	!	!	!
2.F\	-to-	1A,<	-bus	0ryy	2.f\	-to-
4F\	-ri-	.	.	.	4f\	-ri-
!LO:TX:t=P:problem:kreska pseudotaktowa	!	!	!	!	!	!
1C	-bus	1E	in	.	2e,<\	-bus
!	!	!	!	!	!LO:TX:t=P:problem:kreska pseudotaktowa	!
.	.	.	.	.	2e\	in
=40-	=40-	=40-	=40-	=40-	=40-	=40-
2r	.	1E	Cir-	0ryy	2e\	Cir-
!LO:TX:t=P:problem:kreska pseudotaktowa	!	!	!	!	!	!
2AA/	in	.	.	.	2e\	-cum-
2AA/	Cir-	1E	-cum-	.	2c/	-ci-
2C/	-cum-	.	.	.	1c\	-fi-
=41-	=41-	=41-	=41-	=41-	=41-	=41-
2.GG/	-ci-	1D	-ci-	0ryy	.	.
!	!	!	!	!	!LO:TX:t=P:problem:kreska pseudotaktowa	!
!	!	!	!	!	!LO:SIC:v:t=custos c	!
.	.	.	.	.	2B/	-o-
!LO:TX:t=P:problem:kreska pseudotaktowa	!	!	!	!	!	!
4GG/	-fi-	.	.	.	.	.
*lig	*	*	*	*	*	*
!	!	!	!	!	!LO:TX:t=P:problem:kreska pseudotaktowa	!
!	!	!	!	!	!LO:LB:g=original	!
1C	-o-	1E	-fi-	.	1c	-ne
=42-	=42-	=42-	=42-	=42-	=42-	=42-
1D	.	1F	-o-	0ryy	2r	.
.	.	.	.	.	2d\	San-
*Xlig	*	*	*	*	*	*
!LO:TX:t=P:problem:kreska pseudotaktowa	!	!LO:TX:t=P:problem:kreska pseudotaktowa	!	!	!	!
1AA	-ne	1E	-ne.	.	2e\	-gui-
!	!	!	!	!	!LO:TX:t=P:problem:kreska pseudotaktowa	!
.	.	.	.	.	2c/	-ne
=43-	=43-	=43-	=43-	=43-	=43-	=43-
2r	.	1A	San-	0ryy	4A/	o
.	.	.	.	.	4B/	.
2.A\	San-	.	.	.	4c/	.
.	.	.	.	.	4d\	.
.	.	1A	-gui-	.	2e\	.
4G\	.	.	.	.	.	.
!	!	!	!	!	!LO:TX:t=P:problem:kreska pseudotaktowa	!
4F\	.	.	.	.	2c/	Su-
4E\	.	.	.	.	.	.
=44-	=44-	=44-	=44-	=44-	=44-	=44-
2.F\	.	1A	-ne	0ryy	1f	do-
!LO:TX:t=P:problem:kreska pseudotaktowa	!	!	!	!	!	!
4F\	-gui-	.	.	.	.	.
!	!	!LO:TX:t=P:problem:kreska pseudotaktowa	!	!	!LO:TX:t=P:problem:kreska pseudotaktowa	!
1C	-ne	1G	o	.	1e	-re
=45-	=45-	=45-	=45-	=45-	=45-	=45-
2C/	o	1E	Su-	0ryy	2r	.
2AA/	Su-	.	.	.	1A	Fla-
1D	-do-	1F	-do-	.	.	.
!	!	!	!	!	!LO:TX:t=P:problem:kreska pseudotaktowa	!
.	.	.	.	.	2A/	-gel-
=46-	=46-	=46-	=46-	=46-	=46-	=46-
!LO:TX:t=P:problem:kreska pseudotaktowa	!	!LO:TX:t=P:problem:kreska pseudotaktowa	!	!	!	!
1E	-re	1E,<	-re	0ryy	1.e	-la-
2r	.	1Bn	Fla-	.	.	.
1E\	Fla-	.	.	.	2B/	-ti-
=47-	=47-	=47-	=47-	=47-	=47-	=47-
.	.	1B	-gel-	0ryy	2.e\	-o-
!LO:SIC:v:t=custos A	!	!	!	!	!	!
2E\	-gel-	.	.	.	.	.
.	.	.	.	.	4d\	.
!LO:PB:g=original	!	!	!	!	!	!
1.A	-la-	1A	-la-	.	1c	-ne
=48-	=48-	=48-	=48-	=48-	=48-	=48-
!	!	!	!	!	!LO:TX:t=P:problem:kreska pseudotaktowa	!
.	.	1B	-ti-	0ryy	1B	.
!LO:TX:t=P:problem:♯ above	!	!	!	!	!	!
2G#X\	-ti-	.	.	.	.	.
!	!	!LO:SIC:v:t=custos B	!	!	!	!
1A	-o-	1c	-o-	.	1e	Spi-
!	!	!LO:LB:g=original	!	!	!	!
=49-	=49-	=49-	=49-	=49-	=49-	=49-
!LO:TX:t=P:problem:kreska pseudotaktowa	!	!LO:TX:t=P:problem:kreska pseudotaktowa	!	!	!	!
1E	-ne	1B,<	-ne	0ryy	1e	-na-
!LO:TX:t=P:problem:kreska pseudotaktowa	!	!	!	!	!	!
!LO:TX:a:t=2	!	!	!	!	!	!
0r	.	1e	Spi-	.	2e\	-rum
.	.	.	.	.	2.g\	co-
=50-	=50-	=50-	=50-	=50-	=50-	=50-
.	.	1e	-na-	0ryy	.	.
.	.	.	.	.	4f\	.
.	.	.	.	.	4e\	.
!	!	!	!	!	!LO:TX:t=P:problem:kreska pseudotaktowa	!
.	.	.	.	.	4d\	.
!	!	!LO:TX:t=P:problem:kreska pseudotaktowa	!	!	!	!
1A	Spi-	1e,<	-rum	.	2e\	.
!	!	!	!	!	!LO:TX:t=P:problem:kreska pseudotaktowa	!
!	!	!	!	!	!LO:SIC:v:t=custos e	!
.	.	.	.	.	2c/	-ro-
!	!	!	!	!	!LO:LB:g=original	!
=51-	=51-	=51-	=51-	=51-	=51-	=51-
2A\	-na-	1e	co-	0ryy	2e\	-na-
!LO:TX:t=P:problem:kreska pseudotaktowa	!	!	!	!	!	!
2E\	-rum	.	.	.	2g\	-ti-
2A\	Co-	1e	-ro-	.	1e	-o-
2c\	-ro-	.	.	.	.	.
=52-	=52-	=52-	=52-	=52-	=52-	=52-
!	!	!	!	!	!LO:TX:t=P:problem:kreska pseudotaktowa	!
1.Gny	-na-	1d	-na-	0ryy	1B	-ne
.	.	1B	-ti-	.	1r	.
!LO:TX:t=P:problem:kreska pseudotaktowa	!	!	!	!	!	!
2E\	-ti-	.	.	.	.	.
=53-	=53-	=53-	=53-	=53-	=53-	=53-
1A	-o-	1c	-o-	0ryy	1e	Cla-
!LO:TX:t=P:problem:kreska pseudotaktowa	!	!LO:TX:t=P:problem:kreska pseudotaktowa	!	!	!LO:TX:t=P:problem:kreska pseudotaktowa	!
1E	-ne	1B	-ne	.	1e	-no-
=54-	=54-	=54-	=54-	=54-	=54-	=54-
0r	.	1e	Cla-	0ryy	2e\	-rum
.	.	.	.	.	2.g\	.
.	.	1e	-no-	.	.	.
.	.	.	.	.	4f\	per-
.	.	.	.	.	4e\	.
!	!	!	!	!	!LO:TX:t=P:problem:kreska pseudotaktowa	!
.	.	.	.	.	4d\	.
=55-	=55-	=55-	=55-	=55-	=55-	=55-
!	!	!LO:TX:t=P:problem:kreska pseudotaktowa	!	!	!	!
1A	Cla-	1e,<	-rum	0ryy	2e\	.
.	.	.	.	.	2c/	-fo-
2A\	-no-	1e	per-	.	2e\	-ra-
!LO:TX:t=P:problem:kreska pseudotaktowa	!	!	!	!	!LO:TX:t=P:problem:kreska pseudotaktowa	!
2E\	-rum	.	.	.	2g\	-ti-
=56-	=56-	=56-	=56-	=56-	=56-	=56-
2A\	per-	1e	-fo-	0ryy	4e\	-o-
.	.	.	.	.	4d\	.
2c\	-fo-	.	.	.	4e\	.
.	.	.	.	.	4f\	.
1.G	-ra-	1d	-ra-	.	0g	.
=57-	=57-	=57-	=57-	=57-	=57-	=57-
.	.	1B	-ti-	0ryy	.	.
!LO:TX:t=P:problem:kreska pseudotaktowa	!	!	!	!	!	!
2E\	-ti-	.	.	.	.	.
!	!	!	!	!	!LO:TX:t=P:problem:kreska pseudotaktowa	!
1A	-o-	1c	-o-	.	0e	-ne
=58-	=58-	=58-	=58-	=58-	=58-	=58-
!LO:TX:t=P:problem:kreska pseudotaktowa	!	!LO:TX:t=P:problem:kreska pseudotaktowa	!	!	!	!
1E	-ne	1B,<	-ne	0ryy	.	.
1AA	de	1A	de	.	2r	.
.	.	.	.	.	1e\	de
=59-	=59-	=59-	=59-	=59-	=59-	=59-
1E	San-	1B	San-	0ryy	.	.
!	!	!	!	!	!LO:TX:t=P:problem:kreska pseudotaktowa	!
.	.	.	.	.	2e\	San-
2.A\	-ctis-	1c	-ctiſ-	.	2c/	.
.	.	.	.	.	2.A/	-ctis-
!LO:TX:t=P:problem:kreska pseudotaktowa	!	!	!	!	!	!
!LO:SIC:v:t=custos F	!	!	!	!	!	!
4G\	.	.	.	.	.	.
!LO:LB:g=original	!	!	!	!	!	!
=60-	=60-	=60-	=60-	=60-	=60-	=60-
2F\	.	1A	-si-	0ryy	.	.
.	.	.	.	.	4B/	.
2F\	-si-	.	.	.	4c/	.
!	!	!	!	!	!LO:TX:t=P:problem:kreska pseudotaktowa	!
.	.	.	.	.	4d\	.
!	!	!LO:TX:t=P:problem:kreska pseudotaktowa	!	!	!	!
!LO:TX:t=P:problem:kreska pseudotaktowa	!	!LO:SIC:v:t=custos A	!	!	!	!
1C	-mis	1G	-mis	.	4e\	.
.	.	.	.	.	4f\	.
.	.	.	.	.	4g\	.
!	!	!	!	!	!LO:TX:t=P:problem:kreska pseudotaktowa	!
!	!	!	!	!	!LO:SIC:v:t=custos f	!
.	.	.	.	.	4e\	.
!	!	!LO:LB:g=original	!	!	!LO:PB:g=original	!
=61-	=61-	=61-	=61-	=61-	=61-	=61-
4FF/	ma-	1A	ma-	0ryy	2.f\	.
4GG/	.	.	.	.	.	.
4AA/	.	.	.	.	.	.
4BB-X/	.	.	.	.	4f\	-si-
2.C/	.	1G	-ni-	.	2c/	-mis
.	.	.	.	.	1c\	ma-
!LO:TX:t=P:problem:kreska pseudotaktowa	!	!	!	!	!	!
4C/	-ni-	.	.	.	.	.
=62-	=62-	=62-	=62-	=62-	=62-	=62-
!	!	!LO:TX:t=P:problem:kreska pseudotaktowa	!	!	!	!
2C,</	-bus	1E,<	-bus	0ryy	.	.
!	!	!	!	!	!LO:TX:t=P:problem:kreska pseudotaktowa	!
2AA/	ac	.	.	.	2c/	-ni-
2.D/	pe-	1F	ac	.	2f\	-bus
.	.	.	.	.	2.d\	ac
!LO:TX:t=P:problem:kreska pseudotaktowa	!	!	!	!	!	!
4C/	.	.	.	.	.	.
=63-	=63-	=63-	=63-	=63-	=63-	=63-
2BB-X/	.	1D	pe-	0ryy	.	.
.	.	.	.	.	4e\	pe-
2BB-/	-di-	.	.	.	4f\	.
!	!	!	!	!	!LO:TX:t=P:problem:kreska pseudotaktowa	!
.	.	.	.	.	4g\	.
!LO:TX:t=P:problem:kreska pseudotaktowa	!	!	!	!	!	!
1AA	-bus	1C	-di-	.	2a\	-di-
.	.	.	.	.	2e\	.
=64-	=64-	=64-	=64-	=64-	=64-	=64-
!LO:TX:a:t=x	!	!LO:TX:t=P:problem:kreska pseudotaktowa	!	!	!	!
0D	tu-	1D	-bus	0ryy	2.f\	-bus
!	!	!	!	!	!LO:TX:t=P:problem:kreska pseudotaktowa	!
.	.	.	.	.	4e\	.
.	.	1F	Tu-	.	1d,<	Tu-
=65-	=65-	=65-	=65-	=65-	=65-	=65-
!LO:TX:t=P:problem:kreska pseudotaktowa	!	!LO:TX:t=P:problem:kreska pseudotaktowa	!	!	!	!
1E	-is	1E,<	-is.	0ryy	2B/	-is
!	!	!	!	!	!LO:TX:t=P:problem:kreska pseudotaktowa	!
.	.	.	.	.	2e\	.
!	!	!LO:TX:t=P:problem:kreska pseudotaktowa	!	!	!	!
0r	.	1e	De	.	2e\	de
.	.	.	.	.	2.g\	a-
=66-	=66-	=66-	=66-	=66-	=66-	=66-
.	.	1e	a-	0ryy	.	.
.	.	.	.	.	4f\	.
.	.	.	.	.	4e\	.
!	!	!	!	!	!LO:TX:t=P:problem:kreska pseudotaktowa	!
.	.	.	.	.	4d\	.
1A	de	1e	-man-	.	2.c/	-man-
.	.	.	.	.	4d\	.
=67-	=67-	=67-	=67-	=67-	=67-	=67-
2A\	a-	1e	-tiſ-	0ryy	4e\	.
.	.	.	.	.	4f\	.
!LO:TX:t=P:problem:kreska pseudotaktowa	!	!	!	!	!LO:TX:t=P:problem:kreska pseudotaktowa	!
2E\	-man-	.	.	.	2g\	.
2G\	-tiſ-	1d	-si-	.	2.d\	-tiſ-
2D/	-si-	.	.	.	.	.
.	.	.	.	.	4f\	-si-
=68-	=68-	=68-	=68-	=68-	=68-	=68-
!LO:TX:t=P:problem:kreska pseudotaktowa	!	!LO:TX:t=P:problem:kreska pseudotaktowa	!	!	!LO:TX:t=P:problem:kreska pseudotaktowa	!
1E	-mo	1B,<	-mo	0ryy	1e	-mo
2r	.	1c,<	ac	.	1r	.
1F\	ac	.	.	.	.	.
=69-	=69-	=69-	=69-	=69-	=69-	=69-
.	.	1A	De-	0ryy	2r	.
!LO:TX:t=P:problem:kreska pseudotaktowa	!	!	!	!	!	!
2F\	de-	.	.	.	1f	ac
2.C/	-i-	1G	-i-	.	.	.
!	!	!	!	!	!LO:TX:t=P:problem:kreska pseudotaktowa	!
!	!	!	!	!	!LO:SIC:v:t=custos f	!
.	.	.	.	.	2e\	de-
4C/	-fi-	.	.	.	.	.
!	!	!	!	!	!LO:LB:g=original	!
=70-	=70-	=70-	=70-	=70-	=70-	=70-
2F\	-co	1A	-fi-	0ryy	2.f\	-i-
!LO:TX:t=P:problem:kreska pseudotaktowa	!	!	!	!	!	!
!LO:SIC:v:t=custos E	!	!	!	!	!	!
2D/	Tu-	.	.	.	.	.
.	.	.	.	.	4f\	-fi-
!LO:LB:g=original	!	!LO:TX:t=P:problem:kreska pseudotaktowa	!	!	!	!
2E\	-o	1G	-co	.	2g\	-co
!	!	!	!	!	!LO:TX:t=P:problem:kreska pseudotaktowa	!
2.C/	cor-	.	.	.	2c/	Tu-
=71-	=71-	=71-	=71-	=71-	=71-	=71-
.	.	1E	tu-	0ryy	1g	-o
4BB-X/	.	.	.	.	.	.
4AA/	.	.	.	.	.	.
4GG/	.	.	.	.	.	.
*lig	*	*	*	*	*	*
!	!	!LO:TX:t=P:problem:kreska pseudotaktowa	!	!	!	!
*	*	*	*	*	*lig	*
1FF	.	1F	-o	.	1a	cor-
=72-	=72-	=72-	=72-	=72-	=72-	=72-
1GG	.	1D	cor-	0ryy	1g	.
*Xlig	*	*	*	*	*Xlig	*
!	!	!LO:TX:b:t=et de <..>	!	!	!	!
!	!	!LO:TX:t=P:problem:kreska pseudotaktowa	!	!	!	!
!LO:TX:t=P:problem:kreska pseudotaktowa	!	!LO:SIC:v:t=custos g	!	!	!LO:TX:t=P:problem:kreska pseudotaktowa	!
1C	-de	1C	-de	.	1e	-de
!	!	!LO:PB:g=original	!	!	!	!
=73-	=73-	=73-	=73-	=73-	=73-	=73-
!LO:TX:t=P:problem:kreska pseudotaktowa	!	!LO:TX:t=P:problem:kreska pseudotaktowa	!	!	!	!
1rD	.	1G	et	0ryy	1r	.
1.C	et	1G	de	.	1.e	et
=74-	=74-	=74-	=74-	=74-	=74-	=74-
.	.	1A	tu-	0ryy	.	.
!	!	!	!	!	!LO:TX:t=P:problem:kreska pseudotaktowa	!
2D/	de	.	.	.	2f\	de
!	!	!LO:TX:t=P:problem:kreska pseudotaktowa	!	!	!	!
2E\	Tu-	1G,<	-o	.	2g\	Tu-
!LO:TX:t=P:problem:kreska pseudotaktowa	!	!	!	!	!	!
2C/	-o	.	.	.	2e\	-o
=75-	=75-	=75-	=75-	=75-	=75-	=75-
1.G	to-	1B	to-	0ryy	2d\	To-
!	!	!	!	!	!LO:TX:t=P:problem:kreska pseudotaktowa	!
.	.	.	.	.	2d\	-to
!	!	!LO:TX:t=P:problem:kreska pseudotaktowa	!	!	!	!
.	.	1B	-to	.	2.g\	no-
2E\	-to	.	.	.	.	.
.	.	.	.	.	4f\	.
=76-	=76-	=76-	=76-	=76-	=76-	=76-
2.A\	no-	1c	no-	0ryy	2e\	.
!	!	!	!	!	!LO:TX:t=P:problem:kreska pseudotaktowa	!
.	.	.	.	.	2e\	-bi-
4G\	.	.	.	.	.	.
2F\	.	1c	-bi-	.	2f\	-liſ-
!LO:TX:t=P:problem:kreska pseudotaktowa	!	!	!	!	!	!
2E\	-bi-	.	.	.	2c/	-si-
=77-	=77-	=77-	=77-	=77-	=77-	=77-
2.F\	-liſ-	1c	-liſ-	0ryy	1f	-mo
4G\	.	.	.	.	.	.
4A\	.	1c	-si-	.	2.e\	cor-
4B\	.	.	.	.	.	.
2c\	.	.	.	.	.	.
!	!	!	!	!	!LO:TX:t=P:problem:kreska pseudotaktowa	!
.	.	.	.	.	4e\	-po-
=78-	=78-	=78-	=78-	=78-	=78-	=78-
!	!	!LO:TX:t=P:problem:kreska pseudotaktowa	!	!	!	!
2.G\	.	1B,<	-mo	0ryy	2d\	-re
.	.	.	.	.	1g	cor-
4G\	-si-	.	.	.	.	.
!LO:TX:t=P:problem:kreska pseudotaktowa	!	!	!	!	!	!
1C	-mo	1c	cor-	.	.	.
!	!	!	!	!	!LO:TX:t=P:problem:kreska pseudotaktowa	!
.	.	.	.	.	2f#X\	-po-
=79-	=79-	=79-	=79-	=79-	=79-	=79-
!	!	!	!	!	!LO:N:vis=2	!
2.D/	cor-	1A	-po-	0ryy	1g	-re,
4D/	-po-	.	.	.	.	.
!	!	!	!	!	!LO:SIC:v:t=custos f	!
!LO:TX:t=P:problem:kreska pseudotaktowa	!	!	!	!	!LO:TX:t=P:problem:kreska pseudotaktowa	!
1GG	-re	1G,<	-re	.	2d\	e-
!	!	!	!	!	!LO:LB:g=original	!
.	.	.	.	.	2fny\	-ſto
=80-	=80-	=80-	=80-	=80-	=80-	=80-
1r	.	1A	eſ-	0ryy	2f\	pro-
.	.	.	.	.	2.e\	-pi-
!	!	!LO:TX:t=P:problem:kreska pseudotaktowa	!	!	!	!
1C	eſ-	1G	-to	.	.	.
.	.	.	.	.	4d\	-ti-
!	!	!	!	!	!LO:TX:t=P:problem:kreska pseudotaktowa	!
.	.	.	.	.	1c\	-ur
=81-	=81-	=81-	=81-	=81-	=81-	=81-
2C/	-to	1E	pro-	0ryy	.	.
!LO:TX:t=P:problem:kreska pseudotaktowa	!	!	!	!	!	!
!LO:SIC:v:t=custos D	!	!	!	!	!	!
2AA/	pro-	.	.	.	2r	.
!LO:LB:g=original	!	!	!	!	!	!
2.D/	-pi-	1F	-pi-	.	2d\	e-
.	.	.	.	.	2f\	-ſto
4C/	.	.	.	.	.	.
=82-	=82-	=82-	=82-	=82-	=82-	=82-
!	!	!	!	!	!LO:TX:t=P:problem:kreska pseudotaktowa	!
2BB-X/	.	1F	-ti-	0ryy	2d\	.
2BB-/	-ti-	.	.	.	4e\	pro-
.	.	.	.	.	4d\	.
!LO:TX:t=P:problem:kreska pseudotaktowa	!	!LO:TX:t=P:problem:kreska pseudotaktowa	!	!	!	!
1C	-us	1E,<	-ur	.	4e\	-pi-
.	.	.	.	.	4f\	.
.	.	.	.	.	2.g\	-ti-
=83-	=83-	=83-	=83-	=83-	=83-	=83-
!LO:TX:t=P:problem:kreska pseudotaktowa	!	!	!	!	!	!
!LO:TX:a:t=1.	!	!LO:TX:t=P:problem:kreska pseudotaktowa	!	!	!	!
1rD	.	1C	quos	0ryy	.	.
.	.	.	.	.	4f\	.
!	!	!	!	!	!LO:TX:t=P:problem:kreska pseudotaktowa	!
.	.	.	.	.	1e	-ur
!LO:TX:t=P:problem:kreska pseudotaktowa	!	!	!	!	!	!
1C	quos	1c	re-	.	.	.
.	.	.	.	.	2r	.
=84-	=84-	=84-	=84-	=84-	=84-	=84-
!	!	!LO:SIC:v:t=custos A	!	!	!	!
1G	re-	1B	-de-	0ryy	2d\	quos
.	.	.	.	.	1f	.
!	!	!LO:LB:g=original	!	!	!	!
1D	-de-	1A	-miſ-	.	.	.
.	.	.	.	.	2e\	re-
=85-	=85-	=85-	=85-	=85-	=85-	=85-
!	!	!LO:TX:t=P:problem:kreska pseudotaktowa	!	!	!LO:TX:t=P:problem:kreska pseudotaktowa	!
1E	-miſ-	1G	-ti	0ryy	2g\	-de-
.	.	.	.	.	2d\	-miſ-
!LO:TX:t=P:problem:kreska pseudotaktowa	!	!	!	!	!	!
1D	-ti	1F	Tu-	.	2f\	-ti
!	!	!	!	!	!LO:TX:t=P:problem:kreska pseudotaktowa	!
.	.	.	.	.	1e\	Tu-
=86-	=86-	=86-	=86-	=86-	=86-	=86-
!	!	!LO:TX:t=P:problem:kreska pseudotaktowa	!	!	!	!
2C/	Tu-	1G	-o	0ryy	.	.
2C/	-o	.	.	.	2.c/	-o
2.F\	pre-	1A	pre-	.	.	.
.	.	.	.	.	4d\	pre-
.	.	.	.	.	4e\	.
4F\	-ti-	.	.	.	4f\	.
=87-	=87-	=87-	=87-	=87-	=87-	=87-
!	!	!	!	!	!LO:N:vis=1	!
2.C/	-o-	1E	-ti-	0ryy	1.g	.
!LO:TX:t=P:problem:kreska pseudotaktowa	!	!	!	!	!	!
4D/	.	.	.	.	.	.
!	!	!LO:TX:t=P:problem:kreska pseudotaktowa	!	!	!	!
2E\	.	1G	-o-	.	.	.
!	!	!	!	!	!LO:TX:t=P:problem:kreska pseudotaktowa	!
2C/	.	.	.	.	2e\	-ti-
=88-	=88-	=88-	=88-	=88-	=88-	=88-
*	*	*lig	*	*	*	*
2.F\	-ſiſ-	1A	-ſiſ-	0ryy	1f	-o-
4F\	-si-	.	.	.	.	.
!LO:TX:t=P:problem:kreska pseudotaktowa	!	!	!	!	!	!
1C	-mo	1G	.	.	2.e\	-ſi-
.	.	.	.	.	4e\	-ſti-
*	*	*Xlig	*	*	*	*
=89-	=89-	=89-	=89-	=89-	=89-	=89-
!	!	!	!	!	!LO:SIC:v:t=custos c	!
!	!	!	!	!	!LO:TX:t=P:problem:kreska pseudotaktowa	!
2D/	San-	1F	-si-	0ryy	1d	-mo
2BB-X/	.	.	.	.	.	.
!	!	!LO:TX:t=P:problem:kreska pseudotaktowa	!	!	!	!
!	!	!	!	!	!LO:LB:g=original	!
1C	.	1E	-mo	.	2.c/	San-
.	.	.	.	.	4B/	-gui-
=90-	=90-	=90-	=90-	=90-	=90-	=90-
!	!	!	!	!	!LO:TX:t=P:problem:kreska pseudotaktowa	!
2.D/	.	1D	San-	0ryy	1A	-ne
4D/	-gui-	.	.	.	.	.
!LO:TX:t=P:problem:kreska pseudotaktowa	!	!	!	!	!	!
!LO:SIC:v:t=custos AA	!	!	!	!	!	!
1AA	-ne	1E	-gui-	.	2.A/	A-
.	.	.	.	.	4B/	.
!LO:LB:g=original	!	!	!	!	!	!
=91-	=91-	=91-	=91-	=91-	=91-	=91-
!	!	!LO:TX:t=P:problem:kreska pseudotaktowa	!	!	!	!
2rBB	.	1E,<	-ne	0ryy	4c/	.
.	.	.	.	.	4d\	.
2.AA/	A-	.	.	.	2.e\	.
.	.	0E	A-	.	.	.
4BBny/	.	.	.	.	8d\L	.
.	.	.	.	.	8c\J	.
!	!	!	!	!	!LO:TX:t=P:problem:kreska pseudotaktowa:między nutą a kropką	!
4C/	.	.	.	.	2.B/	.
!LO:TX:t=P:problem:kreska pseudotaktowa	!	!	!	!	!	!
4D/	.	.	.	.	.	.
=92-	=92-	=92-	=92-	=92-	=92-	=92-
2.E\	.	.	.	0ryy	.	.
.	.	.	.	.	4c/	.
.	.	.	.	.	2d\	.
4D/	.	.	.	.	.	.
2.C/	.	0E	-men	.	1e	-men
!LO:TX:t=P:problem:kreska pseudotaktowa	!	!	!	!	!	!
4BB/	.	.	.	.	.	.
=93-	=93-	=93-	=93-	=93-	=93-	=93-
2AA/	.	.	.	0ryy	2.e\	A-
2GG#X/	-men	.	.	.	.	.
!	!	!	!	!	!LO:TX:t=P:problem:kreska pseudotaktowa	!
.	.	.	.	.	4d\	.
2C/	A-	0E	A-	.	2c/	.
!LO:TX:t=P:problem:kreska pseudotaktowa	!	!	!	!	!	!
2GG#/	.	.	.	.	2B/	.
=94-	=94-	=94-	=94-	=94-	=94-	=94-
0AA	.	.	.	0ryy	2A/	.
.	.	.	.	.	1c	.
.	.	[1El;	-men.	.	.	.
.	.	.	.	.	4B/	.
.	.	.	.	.	4A/	.
=95-	=95-	=95-	=95-	=95-	=95-	=95-
!	!	!	!	!	!LO:TX:b:t=A.M.D.G.\nR.P.R. Scripsit	!
0El;<	-men	0E]	.	0ryy	0Bl;	-men.
==	==	==	==	==	==	==
*-	*-	*-	*-	*-	*-	*-
!!!system-decoration: [g1]
!!!RDF**kern: > = above
!!!RDF**kern: < = below
!!!RDF**kern: l = terminal long
!!!ENC: Andrzej Kubiczek
!!!END: 2021-03-19
!!!ENC: Andrzej Gręziak
!!!END: 2021-03-04
